;FLAVOR:Marlin
;TIME:47604
;Filament used: 47.985m
;Layer height: 0.2
;MINX:93.7
;MINY:101.251
;MINZ:0.2
;MAXX:206.3
;MAXY:246.405
;MAXZ:31.8
;Generated with Creality Slicer 4.8.2-146
M140 S65
M105
M190 S65
M104 S210
M105
M109 S210
M82 ;absolute extrusion mode
M201 X500.00 Y500.00 Z100.00 E5000.00 ;Setup machine max acceleration
M203 X500.00 Y500.00 Z10.00 E50.00 ;Setup machine max feedrate
M204 P500.00 R1000.00 T500.00 ;Setup Print/Retract/Travel acceleration
M205 X8.00 Y8.00 Z0.40 E5.00 ;Setup Jerk
M220 S100 ;Reset Feedrate
M221 S100 ;Reset Flowrate

G28 ;Home

G92 E0 ;Reset Extruder
G1 Z2.0 F3000 ;Move Z Axis up
G1 X10.1 Y20 Z0.28 F5000.0 ;Move to start position
G1 X10.1 Y200.0 Z0.28 F1500.0 E15 ;Draw the first line
G1 X10.4 Y200.0 Z0.28 F5000.0 ;Move to side a little
G1 X10.4 Y20 Z0.28 F1500.0 E30 ;Draw the second line
G92 E0 ;Reset Extruder
G1 Z2.0 F3000 ;Move Z Axis up

G92 E0
G92 E0
G1 F3900 E-8
;LAYER_COUNT:159
;LAYER:0
M107
;MESH:????????????_2.STL
G0 F6000 X205.9 Y246.005 Z0.2
;TYPE:WALL-INNER
G1 F3900 E0
G1 F1200 X94.1 Y246.005 E3.71848
G1 X94.1 Y103.417 E8.46098
G1 X205.9 Y103.417 E12.17946
G1 X205.9 Y246.005 E16.92196
G0 F6000 X206.3 Y246.405
;TYPE:WALL-OUTER
G1 F1200 X93.7 Y246.405 E20.66705
G1 X93.7 Y103.017 E25.43615
G1 X206.3 Y103.017 E29.18125
G1 X206.3 Y246.405 E33.95035
G0 F6000 X206.03 Y246.135
G0 X205.79 Y245.615
G0 X205.51 Y245.615
;TYPE:SKIN
G1 F1200 X94.49 Y245.615 E37.64289
G1 X94.49 Y103.807 E42.35944
G1 X205.51 Y103.807 E46.05198
G1 X205.51 Y245.615 E50.76854
G1 F3900 E42.76854
G0 F6000 X205.79 Y245.615
G0 X94.982 Y245.895
G0 X94.982 Y245.454
G1 F3900 E50.76854
G1 F1200 X94.649 Y245.122 E50.78418
G0 F6000 X94.649 Y244.556
G1 F1200 X95.547 Y245.454 E50.82642
G0 F6000 X96.113 Y245.454
G1 F1200 X94.649 Y243.99 E50.89528
G0 F6000 X94.649 Y243.425
G1 F1200 X96.679 Y245.454 E50.99074
G0 F6000 X97.244 Y245.454
G1 F1200 X94.649 Y242.859 E51.1128
G0 F6000 X94.649 Y242.293
G1 F1200 X97.81 Y245.454 E51.26148
G0 F6000 X98.376 Y245.454
G1 F1200 X94.649 Y241.727 E51.43679
G0 F6000 X94.649 Y241.162
G1 F1200 X98.941 Y245.454 E51.63867
G0 F6000 X99.507 Y245.454
G1 F1200 X94.649 Y240.596 E51.86718
G0 F6000 X94.649 Y240.03
G1 F1200 X100.073 Y245.454 E52.12231
G0 F6000 X100.638 Y245.454
G1 F1200 X94.649 Y239.465 E52.40401
G0 F6000 X94.649 Y238.899
G1 F1200 X101.204 Y245.454 E52.71234
G0 F6000 X101.77 Y245.454
G1 F1200 X94.649 Y238.333 E53.04729
G0 F6000 X94.649 Y237.768
G1 F1200 X102.336 Y245.454 E53.40884
G0 F6000 X102.901 Y245.454
G1 F1200 X94.649 Y237.202 E53.79699
G0 F6000 X94.649 Y236.636
G1 F1200 X103.467 Y245.454 E54.21176
G0 F6000 X104.033 Y245.454
G1 F1200 X94.649 Y236.071 E54.65313
G0 F6000 X94.649 Y235.505
G1 F1200 X104.598 Y245.454 E55.1211
G0 F6000 X105.164 Y245.454
G1 F1200 X94.649 Y234.939 E55.61569
G0 F6000 X94.649 Y234.374
G1 F1200 X105.73 Y245.454 E56.13689
G0 F6000 X106.295 Y245.454
G1 F1200 X94.649 Y233.808 E56.68468
G0 F6000 X94.649 Y233.242
G1 F1200 X106.861 Y245.454 E57.25909
G0 F6000 X107.427 Y245.454
G1 F1200 X94.649 Y232.677 E57.86011
G0 F6000 X94.649 Y232.111
G1 F1200 X107.992 Y245.454 E58.48772
G0 F6000 X108.558 Y245.454
G1 F1200 X94.649 Y231.545 E59.14196
G0 F6000 X94.649 Y230.979
G1 F1200 X109.124 Y245.454 E59.82282
G0 F6000 X109.689 Y245.454
G1 F1200 X94.649 Y230.414 E60.53025
G0 F6000 X94.649 Y229.848
G1 F1200 X110.255 Y245.454 E61.26431
G0 F6000 X110.821 Y245.454
G1 F1200 X94.649 Y229.282 E62.02499
G0 F6000 X94.649 Y228.717
G1 F1200 X111.386 Y245.454 E62.81225
G0 F6000 X111.952 Y245.454
G1 F1200 X94.649 Y228.151 E63.62613
G0 F6000 X94.649 Y227.585
G1 F1200 X112.518 Y245.454 E64.46663
G0 F6000 X113.084 Y245.454
G1 F1200 X94.649 Y227.02 E65.33373
G0 F6000 X94.649 Y226.454
G1 F1200 X113.649 Y245.454 E66.22744
G0 F6000 X114.215 Y245.454
G1 F1200 X94.649 Y225.888 E67.14776
G0 F6000 X94.649 Y225.323
G1 F1200 X114.781 Y245.454 E68.09468
G0 F6000 X115.346 Y245.454
G1 F1200 X94.649 Y224.757 E69.06821
G0 F6000 X94.649 Y224.191
G1 F1200 X115.912 Y245.454 E70.06835
G0 F6000 X116.478 Y245.454
G1 F1200 X94.649 Y223.626 E71.0951
G0 F6000 X94.649 Y223.06
G1 F1200 X117.043 Y245.454 E72.14845
G0 F6000 X117.609 Y245.454
G1 F1200 X94.649 Y222.494 E73.22841
G0 F6000 X94.649 Y221.928
G1 F1200 X118.175 Y245.454 E74.335
G0 F6000 X118.74 Y245.454
G1 F1200 X94.649 Y221.363 E75.46817
G0 F6000 X94.649 Y220.797
G1 F1200 X119.306 Y245.454 E76.62796
G0 F6000 X119.872 Y245.454
G1 F1200 X94.649 Y220.231 E77.81437
G0 F6000 X94.649 Y219.666
G1 F1200 X120.437 Y245.454 E79.02736
G0 F6000 X121.003 Y245.454
G1 F1200 X94.649 Y219.1 E80.26697
G0 F6000 X94.649 Y218.534
G1 F1200 X121.569 Y245.454 E81.53321
G0 F6000 X122.135 Y245.454
G1 F1200 X94.649 Y217.969 E82.82604
G0 F6000 X94.649 Y217.403
G1 F1200 X122.7 Y245.454 E84.14547
G0 F6000 X123.266 Y245.454
G1 F1200 X94.649 Y216.837 E85.49153
G0 F6000 X94.649 Y216.272
G1 F1200 X123.832 Y245.454 E86.86419
G0 F6000 X124.397 Y245.454
G1 F1200 X94.649 Y215.706 E88.26344
G0 F6000 X94.649 Y215.14
G1 F1200 X124.963 Y245.454 E89.68932
G0 F6000 X125.529 Y245.454
G1 F1200 X94.649 Y214.575 E91.14179
G0 F6000 X94.649 Y214.009
G1 F1200 X126.094 Y245.454 E92.62087
G0 F6000 X126.66 Y245.454
G1 F1200 X94.649 Y213.443 E94.12657
G0 F6000 X94.649 Y212.878
G1 F1200 X127.226 Y245.454 E95.65887
G0 F6000 X127.791 Y245.454
G1 F1200 X94.649 Y212.312 E97.21777
G0 F6000 X94.649 Y211.746
G1 F1200 X128.357 Y245.454 E98.80329
G0 F6000 X128.923 Y245.454
G1 F1200 X94.649 Y211.18 E100.41543
G0 F6000 X94.649 Y210.615
G1 F1200 X129.488 Y245.454 E102.05415
G0 F6000 X130.054 Y245.454
G1 F1200 X94.649 Y210.049 E103.71949
G0 F6000 X94.649 Y209.483
G1 F1200 X130.62 Y245.454 E105.41146
G0 F6000 X131.185 Y245.454
G1 F1200 X94.649 Y208.918 E107.13
G0 F6000 X94.649 Y208.352
G1 F1200 X131.751 Y245.454 E108.87517
G0 F6000 X132.317 Y245.454
G1 F1200 X94.649 Y207.786 E110.64695
G0 F6000 X94.649 Y207.221
G1 F1200 X132.883 Y245.454 E112.44534
G0 F6000 X133.448 Y245.454
G1 F1200 X94.649 Y206.655 E114.27033
G0 F6000 X94.649 Y206.089
G1 F1200 X134.014 Y245.454 E116.12193
G0 F6000 X134.58 Y245.454
G1 F1200 X94.649 Y205.524 E118.00014
G0 F6000 X94.649 Y204.958
G1 F1200 X135.145 Y245.454 E119.90495
G0 F6000 X135.711 Y245.454
G1 F1200 X94.649 Y204.392 E121.83638
G0 F6000 X94.649 Y203.827
G1 F1200 X136.277 Y245.454 E123.79441
G0 F6000 X136.842 Y245.454
G1 F1200 X94.649 Y203.261 E125.77904
G0 F6000 X94.649 Y202.695
G1 F1200 X137.408 Y245.454 E127.79029
G0 F6000 X137.974 Y245.454
G1 F1200 X94.649 Y202.13 E129.82814
G0 F6000 X94.649 Y201.564
G1 F1200 X138.539 Y245.454 E131.8926
G0 F6000 X139.105 Y245.454
G1 F1200 X94.649 Y200.998 E133.98367
G0 F6000 X94.649 Y200.432
G1 F1200 X139.671 Y245.454 E136.10137
G0 F6000 X140.236 Y245.454
G1 F1200 X94.649 Y199.867 E138.24564
G0 F6000 X94.649 Y199.301
G1 F1200 X140.802 Y245.454 E140.41653
G0 F6000 X141.368 Y245.454
G1 F1200 X94.649 Y198.735 E142.61405
G0 F6000 X94.649 Y198.17
G1 F1200 X141.934 Y245.454 E144.83817
G0 F6000 X142.499 Y245.454
G1 F1200 X94.649 Y197.604 E147.08889
G0 F6000 X94.649 Y197.038
G1 F1200 X143.065 Y245.454 E149.36623
G0 F6000 X143.631 Y245.454
G1 F1200 X94.649 Y196.473 E151.67017
G0 F6000 X94.649 Y195.907
G1 F1200 X144.196 Y245.454 E154.00071
G0 F6000 X144.762 Y245.454
G1 F1200 X94.649 Y195.341 E156.35787
G0 F6000 X94.649 Y194.776
G1 F1200 X145.328 Y245.454 E158.74163
G0 F6000 X145.893 Y245.454
G1 F1200 X94.649 Y194.21 E161.15199
G0 F6000 X94.649 Y193.644
G1 F1200 X146.459 Y245.454 E163.58897
G0 F6000 X147.025 Y245.454
G1 F1200 X94.649 Y193.079 E166.05256
G0 F6000 X94.649 Y192.513
G1 F1200 X147.59 Y245.454 E168.54274
G0 F6000 X148.156 Y245.454
G1 F1200 X94.649 Y191.947 E171.05954
G0 F6000 X94.649 Y191.381
G1 F1200 X148.722 Y245.454 E173.60297
G0 F6000 X149.287 Y245.454
G1 F1200 X94.649 Y190.816 E176.17298
G0 F6000 X94.649 Y190.25
G1 F1200 X149.853 Y245.454 E178.7696
G0 F6000 X150.419 Y245.454
G1 F1200 X94.649 Y189.684 E181.39285
G0 F6000 X94.649 Y189.119
G1 F1200 X150.984 Y245.454 E184.04268
G0 F6000 X151.55 Y245.454
G1 F1200 X94.649 Y188.553 E186.71913
G0 F6000 X94.649 Y187.987
G1 F1200 X152.116 Y245.454 E189.4222
G0 F6000 X152.682 Y245.454
G1 F1200 X94.649 Y187.422 E192.15187
G0 F6000 X94.649 Y186.856
G1 F1200 X153.247 Y245.454 E194.90814
G0 F6000 X153.813 Y245.454
G1 F1200 X94.649 Y186.29 E197.69103
G0 F6000 X94.649 Y185.725
G1 F1200 X154.379 Y245.454 E200.50053
G0 F6000 X154.944 Y245.454
G1 F1200 X94.649 Y185.159 E203.33662
G0 F6000 X94.649 Y184.593
G1 F1200 X155.51 Y245.454 E206.19933
G0 F6000 X156.076 Y245.454
G1 F1200 X94.649 Y184.028 E209.08865
G0 F6000 X94.649 Y183.462
G1 F1200 X156.641 Y245.454 E212.00456
G0 F6000 X157.207 Y245.454
G1 F1200 X94.649 Y182.896 E214.9471
G0 F6000 X94.649 Y182.331
G1 F1200 X157.773 Y245.454 E217.91623
G0 F6000 X158.338 Y245.454
G1 F1200 X94.649 Y181.765 E220.91197
G0 F6000 X94.649 Y181.199
G1 F1200 X158.904 Y245.454 E223.93433
G0 F6000 X159.47 Y245.454
G1 F1200 X94.649 Y180.633 E226.98331
G0 F6000 X94.649 Y180.068
G1 F1200 X160.035 Y245.454 E230.05887
G0 F6000 X160.601 Y245.454
G1 F1200 X94.649 Y179.502 E233.16104
G0 F6000 X94.649 Y178.936
G1 F1200 X161.167 Y245.454 E236.28985
G0 F6000 X161.732 Y245.454
G1 F1200 X94.649 Y178.371 E239.44523
G0 F6000 X94.649 Y177.805
G1 F1200 X162.298 Y245.454 E242.62723
G0 F6000 X162.864 Y245.454
G1 F1200 X94.649 Y177.239 E245.83585
G0 F6000 X94.649 Y176.674
G1 F1200 X163.43 Y245.454 E249.07108
G0 F6000 X163.995 Y245.454
G1 F1200 X94.649 Y176.108 E252.3329
G0 F6000 X94.649 Y175.542
G1 F1200 X164.561 Y245.454 E255.62135
G0 F6000 X165.127 Y245.454
G1 F1200 X94.649 Y174.977 E258.93639
G0 F6000 X94.649 Y174.411
G1 F1200 X165.692 Y245.454 E262.27804
G0 F6000 X166.258 Y245.454
G1 F1200 X94.649 Y173.845 E265.6463
G0 F6000 X94.649 Y173.28
G1 F1200 X166.824 Y245.454 E269.04117
G0 F6000 X167.389 Y245.454
G1 F1200 X94.649 Y172.714 E272.46264
G0 F6000 X94.649 Y172.148
G1 F1200 X167.955 Y245.454 E275.91073
G0 F6000 X168.521 Y245.454
G1 F1200 X94.649 Y171.582 E279.38544
G0 F6000 X94.649 Y171.017
G1 F1200 X169.086 Y245.454 E282.88673
G0 F6000 X169.652 Y245.454
G1 F1200 X94.649 Y170.451 E286.41464
G0 F6000 X94.649 Y169.885
G1 F1200 X170.218 Y245.454 E289.96917
G0 F6000 X170.783 Y245.454
G1 F1200 X94.649 Y169.32 E293.55028
G0 F6000 X94.649 Y168.754
G1 F1200 X171.349 Y245.454 E297.15802
G0 F6000 X171.915 Y245.454
G1 F1200 X94.649 Y168.188 E300.79237
G0 F6000 X94.649 Y167.623
G1 F1200 X172.481 Y245.454 E304.45333
G0 F6000 X173.046 Y245.454
G1 F1200 X94.649 Y167.057 E308.14088
G0 F6000 X94.649 Y166.491
G1 F1200 X173.612 Y245.454 E311.85506
G0 F6000 X174.178 Y245.454
G1 F1200 X94.649 Y165.926 E315.59584
G0 F6000 X94.649 Y165.36
G1 F1200 X174.743 Y245.454 E319.36321
G0 F6000 X175.309 Y245.454
G1 F1200 X94.649 Y164.794 E323.15721
G0 F6000 X94.649 Y164.229
G1 F1200 X175.875 Y245.454 E326.97781
G0 F6000 X176.44 Y245.454
G1 F1200 X94.649 Y163.663 E330.82501
G0 F6000 X94.649 Y163.097
G1 F1200 X177.006 Y245.454 E334.69883
G0 F6000 X177.572 Y245.454
G1 F1200 X94.649 Y162.532 E338.59925
G0 F6000 X94.649 Y161.966
G1 F1200 X178.137 Y245.454 E342.52627
G0 F6000 X178.703 Y245.454
G1 F1200 X94.649 Y161.4 E346.47991
G0 F6000 X94.649 Y160.834
G1 F1200 X179.269 Y245.454 E350.46018
G0 F6000 X179.834 Y245.454
G1 F1200 X94.649 Y160.269 E354.46702
G0 F6000 X94.649 Y159.703
G1 F1200 X180.4 Y245.454 E358.50048
G0 F6000 X180.966 Y245.454
G1 F1200 X94.649 Y159.137 E362.56057
G0 F6000 X94.649 Y158.572
G1 F1200 X181.531 Y245.454 E366.64723
G0 F6000 X182.097 Y245.454
G1 F1200 X94.649 Y158.006 E370.76052
G0 F6000 X94.649 Y157.44
G1 F1200 X182.663 Y245.454 E374.90043
G0 F6000 X183.229 Y245.454
G1 F1200 X94.649 Y156.875 E379.06693
G0 F6000 X94.649 Y156.309
G1 F1200 X183.794 Y245.454 E383.26004
G0 F6000 X184.36 Y245.454
G1 F1200 X94.649 Y155.743 E387.47977
G0 F6000 X94.649 Y155.178
G1 F1200 X184.926 Y245.454 E391.7261
G0 F6000 X185.491 Y245.454
G1 F1200 X94.649 Y154.612 E395.99903
G0 F6000 X94.649 Y154.046
G1 F1200 X186.057 Y245.454 E400.29858
G0 F6000 X186.623 Y245.454
G1 F1200 X94.649 Y153.481 E404.62473
G0 F6000 X94.649 Y152.915
G1 F1200 X187.188 Y245.454 E408.97748
G0 F6000 X187.754 Y245.454
G1 F1200 X94.649 Y152.349 E413.35686
G0 F6000 X94.649 Y151.784
G1 F1200 X188.32 Y245.454 E417.76283
G0 F6000 X188.885 Y245.454
G1 F1200 X94.649 Y151.218 E422.1954
G0 F6000 X94.649 Y150.652
G1 F1200 X189.451 Y245.454 E426.6546
G0 F6000 X190.017 Y245.454
G1 F1200 X94.649 Y150.086 E431.14042
G0 F6000 X94.649 Y149.521
G1 F1200 X190.582 Y245.454 E435.65281
G0 F6000 X191.148 Y245.454
G1 F1200 X94.649 Y148.955 E440.19183
G0 F6000 X94.649 Y148.389
G1 F1200 X191.714 Y245.454 E444.75747
G0 F6000 X192.28 Y245.454
G1 F1200 X94.649 Y147.824 E449.34971
G0 F6000 X94.649 Y147.258
G1 F1200 X192.845 Y245.454 E453.96855
G0 F6000 X193.411 Y245.454
G1 F1200 X94.649 Y146.692 E458.61401
G0 F6000 X94.649 Y146.127
G1 F1200 X193.977 Y245.454 E463.28607
G0 F6000 X194.542 Y245.454
G1 F1200 X94.649 Y145.561 E467.98473
G0 F6000 X94.649 Y144.995
G1 F1200 X195.108 Y245.454 E472.71001
G0 F6000 X195.674 Y245.454
G1 F1200 X94.649 Y144.43 E477.4619
G0 F6000 X94.649 Y143.864
G1 F1200 X196.239 Y245.454 E482.24038
G0 F6000 X196.805 Y245.454
G1 F1200 X94.649 Y143.298 E487.04548
G0 F6000 X94.649 Y142.733
G1 F1200 X197.371 Y245.454 E491.87719
G0 F6000 X197.936 Y245.454
G1 F1200 X94.649 Y142.167 E496.73549
G0 F6000 X94.649 Y141.601
G1 F1200 X198.502 Y245.454 E501.62042
G0 F6000 X199.068 Y245.454
G1 F1200 X94.649 Y141.035 E506.53197
G0 F6000 X94.649 Y140.47
G1 F1200 X199.633 Y245.454 E511.47009
G0 F6000 X200.199 Y245.454
G1 F1200 X94.649 Y139.904 E516.43484
G0 F6000 X94.649 Y139.338
G1 F1200 X200.765 Y245.454 E521.42621
G0 F6000 X201.33 Y245.454
G1 F1200 X94.649 Y138.773 E526.44416
G0 F6000 X94.649 Y138.207
G1 F1200 X201.896 Y245.454 E531.48873
G0 F6000 X202.462 Y245.454
G1 F1200 X94.649 Y137.641 E536.55992
G0 F6000 X94.649 Y137.076
G1 F1200 X203.028 Y245.454 E541.65772
G0 F6000 X203.593 Y245.454
G1 F1200 X94.649 Y136.51 E546.78211
G0 F6000 X94.649 Y135.944
G1 F1200 X204.159 Y245.454 E551.93312
G0 F6000 X204.725 Y245.454
G1 F1200 X94.649 Y135.379 E557.11074
G0 F6000 X94.649 Y134.813
G1 F1200 X205.29 Y245.454 E562.31495
G0 F6000 X205.35 Y244.948
G1 F1200 X94.649 Y134.247 E567.52199
G0 F6000 X94.649 Y133.682
G1 F1200 X205.35 Y244.382 E572.729
G0 F6000 X205.35 Y243.816
G1 F1200 X94.649 Y133.116 E577.93601
G0 F6000 X94.649 Y132.55
G1 F1200 X205.35 Y243.251 E583.14305
G0 F6000 X205.35 Y242.685
G1 F1200 X94.649 Y131.985 E588.35006
G0 F6000 X94.649 Y131.419
G1 F1200 X205.35 Y242.119 E593.55707
G0 F6000 X205.35 Y241.554
G1 F1200 X94.649 Y130.853 E598.76411
G0 F6000 X94.649 Y130.287
G1 F1200 X205.35 Y240.988 E603.97114
G0 F6000 X205.35 Y240.422
G1 F1200 X94.649 Y129.722 E609.17815
G0 F6000 X94.649 Y129.156
G1 F1200 X205.35 Y239.856 E614.38517
G0 F6000 X205.35 Y239.291
G1 F1200 X94.649 Y128.59 E619.5922
G0 F6000 X94.649 Y128.025
G1 F1200 X205.35 Y238.725 E624.79921
G0 F6000 X205.35 Y238.159
G1 F1200 X94.649 Y127.459 E630.00622
G0 F6000 X94.649 Y126.893
G1 F1200 X205.35 Y237.594 E635.21326
G0 F6000 X205.35 Y237.028
G1 F1200 X94.649 Y126.328 E640.42027
G0 F6000 X94.649 Y125.762
G1 F1200 X205.35 Y236.462 E645.62728
G0 F6000 X205.35 Y235.897
G1 F1200 X94.649 Y125.196 E650.83432
G0 F6000 X94.649 Y124.631
G1 F1200 X205.35 Y235.331 E656.04133
G0 F6000 X205.35 Y234.765
G1 F1200 X94.649 Y124.065 E661.24834
G0 F6000 X94.649 Y123.499
G1 F1200 X205.35 Y234.2 E666.45538
G0 F6000 X205.35 Y233.634
G1 F1200 X94.649 Y122.934 E671.66239
G0 F6000 X94.649 Y122.368
G1 F1200 X205.35 Y233.068 E676.8694
G0 F6000 X205.35 Y232.503
G1 F1200 X94.649 Y121.802 E682.07644
G0 F6000 X94.649 Y121.236
G1 F1200 X205.35 Y231.937 E687.28348
G0 F6000 X205.35 Y231.371
G1 F1200 X94.649 Y120.671 E692.49049
G0 F6000 X94.649 Y120.105
G1 F1200 X205.35 Y230.806 E697.69752
G0 F6000 X205.35 Y230.24
G1 F1200 X94.649 Y119.539 E702.90456
G0 F6000 X94.649 Y118.974
G1 F1200 X205.35 Y229.674 E708.11157
G0 F6000 X205.35 Y229.108
G1 F1200 X94.649 Y118.408 E713.31858
G0 F6000 X94.649 Y117.842
G1 F1200 X205.35 Y228.543 E718.52562
G0 F6000 X205.35 Y227.977
G1 F1200 X94.649 Y117.277 E723.73263
G0 F6000 X94.649 Y116.711
